_inc/images/systems/logos/auto-breakout.svg

<svg viewBox="0 0 200 40" xmlns="http://www.w3.org/2000/svg">
    <path d="M131.488 34.999v-3.283c-.239-.012-.473-.034-.71-.034-13.114 0-26.221 0-39.336-.01-.566 0-.808.121-.759.73.049.638.038 1.285.005 1.927-.027.51.117.705.664.688 1.308-.04 2.616-.018 3.922-.012 1.003.007 1.64.56 1.661 1.423.022.86-.686 1.524-1.649 1.53-1.951.004-3.9.004-5.849 0-.997-.006-1.639-.588-1.656-1.584a225.877 225.877 0 0 1 0-6.049c.011-1.073.577-1.562 1.71-1.562 7.178-.005 14.355 0 21.528 0h21.46c1.499 0 1.905.394 1.905 1.873 0 1.883.006 3.766 0 5.65-.006 1.117-.555 1.676-1.662 1.676-10.235 0-20.462-.01-30.697.022-.919.006-1.767-.735-1.739-1.518.027-.912.648-1.449 1.756-1.449h28.57c.266-.018.526-.018.876-.018Zm-14.757-22.645c-.023-5.681 4.552-10.293 10.263-10.338 5.665-.044 10.322 4.554 10.374 10.234.052 5.681-4.627 10.389-10.322 10.397-5.666.008-10.286-4.613-10.315-10.293Zm10.329-6.422a6.365 6.365 0 0 0-6.407 6.355c-.029 3.545 2.87 6.467 6.422 6.452 3.508-.015 6.385-2.914 6.385-6.414-.015-3.524-2.885-6.393-6.4-6.393Z" style="fill:#ccc"/>
    <path d="m26.555 24.89 3.3-18.75h9.24c1.44 0 2.485.25 3.135.75.65.5.975 1.27.975 2.31 0 1.52-.335 2.77-1.005 3.75-.67.98-1.485 1.59-2.445 1.83l-.03.18c1.8.34 2.7 1.53 2.7 3.57 0 1.8-.49 3.31-1.47 4.53-.98 1.22-2.36 1.83-4.14 1.83Zm9.24-7.47h-2.25l-.54 3.06h2.22c.5 0 .88-.2 1.14-.6.26-.4.39-.91.39-1.53s-.32-.93-.96-.93Zm.84-7.17h-1.8l-.51 2.79h1.77c.92 0 1.38-.65 1.38-1.95 0-.56-.28-.84-.84-.84Zm22.8 14.64h-6.27l-1.38-5.58h-1.23l-.96 5.58h-5.7l3.3-18.75h9c3.42 0 5.13 1.53 5.13 4.59 0 1.26-.19 2.46-.57 3.6-.7 2.16-1.8 3.6-3.3 4.32Zm-7.41-13.95-.66 3.75h1.32c.68 0 1.195-.075 1.545-.225.35-.15.59-.58.72-1.29.13-.71.195-1.145.195-1.305 0-.4-.155-.655-.465-.765-.31-.11-.815-.165-1.515-.165Zm22.469 6.87h-5.7l-.39 2.28h6.99l-.84 4.8h-12.69l3.3-18.75h12.54l-1.56 4.8h-6.15l-.42 2.52h5.7Zm7.53 7.08h-6l7.89-18.75h8.82l1.32 18.75h-6.03l-.12-2.97h-4.71Zm5.13-12.99-2.1 5.25h2.4V11.9Zm16.2 5.4.03-.57h-.24l-1.41 8.16h-5.7l3.3-18.75h5.7l-1.35 7.65h.24c.16-.64.34-1.12.54-1.44l3.78-6.21h6.15l-5.88 9.21 2.73 9.54h-6.15l-1.65-6.72c-.06-.2-.09-.49-.09-.87Zm44.561-11.139-2.49 14.07h2.04c.7 0 1.2-.095 1.5-.285.3-.19.51-.625.63-1.305l2.22-12.48h5.7l-1.86 10.53c-.3 1.7-.645 3.07-1.035 4.11-.39 1.04-.935 1.92-1.635 2.64-.7.72-1.565 1.22-2.595 1.5-1.03.28-2.335.42-3.915.42-2.42 0-4.115-.365-5.085-1.095-.97-.73-1.455-1.985-1.455-3.765 0-.98.14-2.25.42-3.81l1.86-10.53Zm24.66 4.8h-4.14l-2.43 13.95h-5.7l2.43-13.95h-4.11l.87-4.8h13.95Z" style="white-space:pre;fill:#fff"/>
</svg>

<?xml version="1.0" encoding="utf-8"?>
<svg version="1.1" id="Warstwa_1" x="0px" y="0px" viewBox="0 0 200 40" xmlns="http://www.w3.org/2000/svg">
  <path d="M 131.488 34.999 C 131.488 33.869 131.488 32.834 131.488 31.716 C 131.249 31.704 131.015 31.682 130.778 31.682 C 117.664 31.682 104.557 31.682 91.442 31.672 C 90.876 31.672 90.634 31.793 90.683 32.402 C 90.732 33.04 90.721 33.687 90.688 34.329 C 90.661 34.839 90.805 35.034 91.352 35.017 C 92.66 34.977 93.968 34.999 95.274 35.005 C 96.277 35.012 96.914 35.565 96.935 36.428 C 96.957 37.288 96.249 37.952 95.286 37.958 C 93.335 37.962 91.386 37.962 89.437 37.958 C 88.44 37.952 87.798 37.37 87.781 36.374 C 87.754 34.357 87.754 32.342 87.781 30.325 C 87.792 29.252 88.358 28.763 89.491 28.763 C 96.669 28.758 103.846 28.763 111.019 28.763 C 118.172 28.763 125.329 28.763 132.479 28.763 C 133.978 28.763 134.384 29.157 134.384 30.636 C 134.384 32.519 134.39 34.402 134.384 36.286 C 134.378 37.403 133.829 37.962 132.722 37.962 C 122.487 37.962 112.26 37.952 102.025 37.984 C 101.106 37.99 100.258 37.249 100.286 36.466 C 100.313 35.554 100.934 35.017 102.042 35.017 C 111.567 35.017 121.087 35.017 130.612 35.017 C 130.878 34.999 131.138 34.999 131.488 34.999 Z" style="fill: rgb(204, 204, 204);"/>
  <path d="M 116.731 12.354 C 116.708 6.673 121.283 2.061 126.994 2.016 C 132.659 1.972 137.316 6.57 137.368 12.25 C 137.42 17.931 132.741 22.639 127.046 22.647 C 121.38 22.655 116.76 18.034 116.731 12.354 Z M 127.06 5.932 C 123.508 5.932 120.683 8.735 120.653 12.287 C 120.624 15.832 123.523 18.754 127.075 18.739 C 130.583 18.724 133.46 15.825 133.46 12.325 C 133.445 8.801 130.575 5.932 127.06 5.932 Z" style="fill: rgb(204, 204, 204);"/>
  <path d="M 26.555 24.89 L 29.855 6.14 L 39.095 6.14 C 40.535 6.14 41.58 6.39 42.23 6.89 C 42.88 7.39 43.205 8.16 43.205 9.2 C 43.205 10.72 42.87 11.97 42.2 12.95 C 41.53 13.93 40.715 14.54 39.755 14.78 L 39.725 14.96 C 41.525 15.3 42.425 16.49 42.425 18.53 C 42.425 20.33 41.935 21.84 40.955 23.06 C 39.975 24.28 38.595 24.89 36.815 24.89 Z M 35.795 17.42 L 33.545 17.42 L 33.005 20.48 L 35.225 20.48 C 35.725 20.48 36.105 20.28 36.365 19.88 C 36.625 19.48 36.755 18.97 36.755 18.35 C 36.755 17.73 36.435 17.42 35.795 17.42 Z M 36.635 10.25 L 34.835 10.25 L 34.325 13.04 L 36.095 13.04 C 37.015 13.04 37.475 12.39 37.475 11.09 C 37.475 10.53 37.195 10.25 36.635 10.25 Z M 59.435 24.89 L 53.165 24.89 L 51.785 19.31 L 50.555 19.31 L 49.595 24.89 L 43.895 24.89 L 47.195 6.14 L 56.195 6.14 C 59.615 6.14 61.325 7.67 61.325 10.73 C 61.325 11.99 61.135 13.19 60.755 14.33 C 60.055 16.49 58.955 17.93 57.455 18.65 Z M 52.025 10.94 L 51.365 14.69 L 52.685 14.69 C 53.365 14.69 53.88 14.615 54.23 14.465 C 54.58 14.315 54.82 13.885 54.95 13.175 C 55.08 12.465 55.145 12.03 55.145 11.87 C 55.145 11.47 54.99 11.215 54.68 11.105 C 54.37 10.995 53.865 10.94 53.165 10.94 Z M 74.494 17.81 L 68.794 17.81 L 68.404 20.09 L 75.394 20.09 L 74.554 24.89 L 61.864 24.89 L 65.164 6.14 L 77.704 6.14 L 76.144 10.94 L 69.994 10.94 L 69.574 13.46 L 75.274 13.46 Z M 82.024 24.89 L 76.024 24.89 L 83.914 6.14 L 92.734 6.14 L 94.054 24.89 L 88.024 24.89 L 87.904 21.92 L 83.194 21.92 Z M 87.154 11.9 L 85.054 17.15 L 87.454 17.15 L 87.454 11.9 Z M 103.354 17.3 L 103.384 16.73 L 103.144 16.73 L 101.734 24.89 L 96.034 24.89 L 99.334 6.14 L 105.034 6.14 L 103.684 13.79 L 103.924 13.79 C 104.084 13.15 104.264 12.67 104.464 12.35 L 108.244 6.14 L 114.394 6.14 L 108.514 15.35 L 111.244 24.89 L 105.094 24.89 L 103.444 18.17 C 103.384 17.97 103.354 17.68 103.354 17.3 Z" style="white-space: pre; fill: rgb(255, 255, 255);"/>
  <path d="M 147.915 6.161 L 145.425 20.231 L 147.465 20.231 C 148.165 20.231 148.665 20.136 148.965 19.946 C 149.265 19.756 149.475 19.321 149.595 18.641 L 151.815 6.161 L 157.515 6.161 L 155.655 16.691 C 155.355 18.391 155.01 19.761 154.62 20.801 C 154.23 21.841 153.685 22.721 152.985 23.441 C 152.285 24.161 151.42 24.661 150.39 24.941 C 149.36 25.221 148.055 25.361 146.475 25.361 C 144.055 25.361 142.36 24.996 141.39 24.266 C 140.42 23.536 139.935 22.281 139.935 20.501 C 139.935 19.521 140.075 18.251 140.355 16.691 L 142.215 6.161 Z M 172.575 10.961 L 168.435 10.961 L 166.005 24.911 L 160.305 24.911 L 162.735 10.961 L 158.625 10.961 L 159.495 6.161 L 173.445 6.161 Z" style="white-space: pre; fill: rgb(255, 255, 255);"/>
</svg>
